public/img/inst.svg

<svg width="24" height="24" viewBox="0 0 24 24" fill="none" xmlns="http://www.w3.org/2000/svg">
<path fill-rule="evenodd" clip-rule="evenodd" d="M7.87727 2.06C8.94364 2.01091 9.28364 2 12 2C14.7164 2 15.0564 2.01182 16.1218 2.06C17.1873 2.10818 17.9145 2.27818 18.5509 2.52455C19.2173 2.77636 19.8218 3.17 20.3218 3.67909C20.8309 4.17818 21.2236 4.78182 21.4745 5.44909C21.7218 6.08545 21.8909 6.81273 21.94 7.87636C21.9891 8.94455 22 9.28455 22 12C22 14.7164 21.9882 15.0564 21.94 16.1227C21.8918 17.1864 21.7218 17.9136 21.4745 18.55C21.2236 19.2174 20.8303 19.822 20.3218 20.3218C19.8218 20.8309 19.2173 21.2236 18.5509 21.4745C17.9145 21.7218 17.1873 21.8909 16.1236 21.94C15.0564 21.9891 14.7164 22 12 22C9.28364 22 8.94364 21.9882 7.87727 21.94C6.81364 21.8918 6.08636 21.7218 5.45 21.4745C4.78266 21.2236 4.17802 20.8302 3.67818 20.3218C3.16944 19.8224 2.77574 19.2181 2.52455 18.5509C2.27818 17.9145 2.10909 17.1873 2.06 16.1236C2.01091 15.0555 2 14.7155 2 12C2 9.28364 2.01182 8.94364 2.06 7.87818C2.10818 6.81273 2.27818 6.08545 2.52455 5.44909C2.77611 4.78189 3.17011 4.17756 3.67909 3.67818C4.17822 3.16955 4.78225 2.77586 5.44909 2.52455C6.08545 2.27818 6.81273 2.10909 7.87636 2.06H7.87727ZM16.0409 3.86C14.9864 3.81182 14.67 3.80182 12 3.80182C9.33 3.80182 9.01364 3.81182 7.95909 3.86C6.98364 3.90455 6.45455 4.06727 6.10182 4.20455C5.63545 4.38636 5.30182 4.60182 4.95182 4.95182C4.62004 5.27459 4.36471 5.66753 4.20455 6.10182C4.06727 6.45455 3.90455 6.98364 3.86 7.95909C3.81182 9.01364 3.80182 9.33 3.80182 12C3.80182 14.67 3.81182 14.9864 3.86 16.0409C3.90455 17.0164 4.06727 17.5455 4.20455 17.8982C4.36455 18.3318 4.62 18.7255 4.95182 19.0482C5.27455 19.38 5.66818 19.6355 6.10182 19.7955C6.45455 19.9327 6.98364 20.0955 7.95909 20.14C9.01364 20.1882 9.32909 20.1982 12 20.1982C14.6709 20.1982 14.9864 20.1882 16.0409 20.14C17.0164 20.0955 17.5455 19.9327 17.8982 19.7955C18.3645 19.6136 18.6982 19.3982 19.0482 19.0482C19.38 18.7255 19.6355 18.3318 19.7955 17.8982C19.9327 17.5455 20.0955 17.0164 20.14 16.0409C20.1882 14.9864 20.1982 14.67 20.1982 12C20.1982 9.33 20.1882 9.01364 20.14 7.95909C20.0955 6.98364 19.9327 6.45455 19.7955 6.10182C19.6136 5.63545 19.3982 5.30182 19.0482 4.95182C18.7254 4.62006 18.3325 4.36474 17.8982 4.20455C17.5455 4.06727 17.0164 3.90455 16.0409 3.86ZM10.7227 15.0827C11.4361 15.3797 12.2303 15.4197 12.9699 15.1961C13.7095 14.9725 14.3485 14.499 14.7778 13.8566C15.2071 13.2142 15.4001 12.4426 15.3237 11.6737C15.2473 10.9049 14.9064 10.1863 14.3591 9.64091C14.0102 9.29225 13.5884 9.02528 13.1239 8.85922C12.6595 8.69317 12.164 8.63215 11.6732 8.68056C11.1823 8.72897 10.7083 8.88562 10.2853 9.13921C9.86223 9.3928 9.50068 9.73704 9.22664 10.1471C8.9526 10.5572 8.7729 11.023 8.70047 11.5109C8.62804 11.9988 8.66468 12.4966 8.80776 12.9687C8.95084 13.4407 9.1968 13.8751 9.52793 14.2407C9.85906 14.6062 10.2671 14.8938 10.7227 15.0827ZM8.36545 8.36545C8.84275 7.88816 9.40938 7.50955 10.033 7.25124C10.6566 6.99293 11.325 6.85998 12 6.85998C12.675 6.85998 13.3434 6.99293 13.967 7.25124C14.5906 7.50955 15.1573 7.88816 15.6345 8.36545C16.1118 8.84275 16.4905 9.40938 16.7488 10.033C17.0071 10.6566 17.14 11.325 17.14 12C17.14 12.675 17.0071 13.3434 16.7488 13.967C16.4905 14.5906 16.1118 15.1573 15.6345 15.6345C14.6706 16.5985 13.3632 17.14 12 17.14C10.6368 17.14 9.3294 16.5985 8.36545 15.6345C7.40151 14.6706 6.85998 13.3632 6.85998 12C6.85998 10.6368 7.40151 9.3294 8.36545 8.36545ZM18.28 7.62545C18.3983 7.51388 18.493 7.37971 18.5585 7.23089C18.624 7.08206 18.6589 6.92161 18.6613 6.75903C18.6637 6.59645 18.6334 6.43504 18.5723 6.28437C18.5111 6.1337 18.4204 5.99683 18.3054 5.88185C18.1904 5.76688 18.0536 5.67614 17.9029 5.61502C17.7522 5.55389 17.5908 5.52361 17.4282 5.52598C17.2657 5.52835 17.1052 5.56332 16.9564 5.62881C16.8076 5.69431 16.6734 5.789 16.5618 5.90727C16.3448 6.1373 16.226 6.44284 16.2306 6.75903C16.2352 7.07522 16.3629 7.37716 16.5865 7.60077C16.8101 7.82437 17.1121 7.95203 17.4282 7.95664C17.7444 7.96125 18.05 7.84245 18.28 7.62545Z" fill="#535761"/>
</svg>

<svg width="24" height="24" fill="none" xmlns="http://www.w3.org/2000/svg"><path fill-rule="evenodd" clip-rule="evenodd" d="M7.877 2.06C8.944 2.01 9.284 2 12 2s3.056.012 4.122.06c1.065.048 1.793.218 2.429.465a4.92 4.92 0 011.77 1.154c.51.5.903 1.103 1.153 1.77.248.636.417 1.364.466 2.427.05 1.069.06 1.409.06 4.124 0 2.716-.012 3.056-.06 4.123-.048 1.063-.218 1.79-.466 2.427a4.904 4.904 0 01-1.152 1.772c-.5.509-1.105.902-1.771 1.152-.636.248-1.364.417-2.427.466-1.068.05-1.408.06-4.124.06-2.716 0-3.056-.012-4.123-.06-1.063-.048-1.79-.218-2.427-.466a4.906 4.906 0 01-1.772-1.152 4.902 4.902 0 01-1.153-1.771c-.247-.636-.416-1.364-.465-2.427C2.01 15.056 2 14.716 2 12c0-2.716.012-3.056.06-4.122.048-1.065.218-1.793.465-2.429a4.905 4.905 0 011.154-1.77 4.902 4.902 0 011.77-1.154c.636-.247 1.364-.416 2.427-.465h.001zm8.164 1.8c-1.055-.048-1.371-.058-4.041-.058-2.67 0-2.986.01-4.04.058-.976.045-1.505.207-1.858.345a3.09 3.09 0 00-1.15.747 3.102 3.102 0 00-.747 1.15c-.138.353-.3.882-.345 1.857C3.812 9.014 3.802 9.33 3.802 12c0 2.67.01 2.986.058 4.04.045.976.207 1.506.345 1.858.16.434.415.828.747 1.15.323.332.716.588 1.15.748.353.137.882.3 1.857.344 1.055.048 1.37.058 4.041.058 2.67 0 2.986-.01 4.04-.058.976-.044 1.506-.207 1.858-.345.466-.181.8-.397 1.15-.747.332-.322.588-.716.748-1.15.137-.352.3-.882.344-1.857.048-1.055.058-1.371.058-4.041 0-2.67-.01-2.986-.058-4.04-.044-.976-.207-1.505-.345-1.858a3.106 3.106 0 00-.747-1.15 3.102 3.102 0 00-1.15-.747c-.352-.138-.882-.3-1.857-.345zm-5.318 11.223a3.335 3.335 0 102.4-6.224 3.336 3.336 0 00-2.4 6.224zM8.365 8.365a5.14 5.14 0 117.27 7.27 5.14 5.14 0 01-7.27-7.27zm9.915-.74a1.215 1.215 0 10-1.668-1.768 1.215 1.215 0 001.668 1.768z" fill="#535761"/></svg>
